src/assets/outline/Paperclip.svg

<svg width="24" height="24" viewBox="0 0 24 24"  xmlns="http://www.w3.org/2000/svg">
<path d="M10.9702 22.75C7.25022 22.75 4.22021 19.72 4.22021 16V10C4.22021 5.73 7.70022 2.25 11.9702 2.25C16.2402 2.25 19.7202 5.73 19.7202 10V15.5C19.7202 17.84 17.8102 19.75 15.4702 19.75C13.1302 19.75 11.2202 17.84 11.2202 15.5V12C11.2202 11.59 11.5602 11.25 11.9702 11.25C12.3802 11.25 12.7202 11.59 12.7202 12V15.5C12.7202 17.02 13.9502 18.25 15.4702 18.25C16.9902 18.25 18.2202 17.02 18.2202 15.5V10C18.2202 6.55 15.4202 3.75 11.9702 3.75C8.52022 3.75 5.72021 6.55 5.72021 10V16C5.72021 18.89 8.07022 21.25 10.9702 21.25C11.3802 21.25 11.7202 21.59 11.7202 22C11.7202 22.41 11.3902 22.75 10.9702 22.75Z" />
</svg>

<?xml version="1.0" encoding="UTF-8"?>
<svg width="24" height="24" viewBox="0 0 24 24" xmlns="http://www.w3.org/2000/svg">
 <path d="m10.97 22.75c-3.72 0-6.75-3.03-6.75-6.75v-6c0-4.27 3.48-7.75 7.75-7.75 4.27 0 7.75 3.48 7.75 7.75v5.5c0 2.34-1.91 4.25-4.25 4.25s-4.25-1.91-4.25-4.25v-3.5c0-0.41 0.34-0.75 0.75-0.75s0.75 0.34 0.75 0.75v3.5c0 1.52 1.23 2.75 2.75 2.75s2.75-1.23 2.75-2.75v-5.5c0-3.45-2.8-6.25-6.25-6.25-3.45 0-6.25 2.8-6.25 6.25v6c0 2.89 2.35 5.25 5.25 5.25 0.41 0 0.75 0.34 0.75 0.75s-0.33 0.75-0.75 0.75z"/>
</svg>
